X:1
T:The Skye Boat Song
C:Traditional (Scottish)
M:6/8
L:1/8
Q:3/8=72
K:G

G2 A B2 c | d2 e f3 | f2 g a3 | a2 f g2 e | d2 B A3 |
B2 c d2 e | f2 g a3 | a3 g2 f | e2 d c2 B | G3 G3 |]
w: Speed bon-nie boat | like a bird | on the wing | on-ward the sail- | -ors cry _ | Car-ry the lad | that's born to | be King o- | -ver the sea to | Skye _ |
